symbols/web/download/materialsymbolsrounded/download_wght600grad200_20px.svg

<svg xmlns="http://www.w3.org/2000/svg" height="20" width="20"><path d="M10 12.521q-.229 0-.469-.104-.239-.105-.448-.313L5.562 8.583q-.416-.416-.416-.937 0-.521.437-.938.417-.416.927-.406.511.01.928.427L8.688 8V3.042q0-.542.395-.927.396-.386.917-.386.542 0 .938.386.395.385.395.927V8l1.271-1.271q.417-.417.927-.427.511-.01.927.406.417.417.417.938 0 .521-.417.937l-3.5 3.521q-.229.208-.468.313-.24.104-.49.104Zm-5.208 5.312q-1.104 0-1.875-.76-.771-.761-.771-1.885v-1.834q0-.521.396-.916.396-.396.916-.396.542 0 .938.396.396.395.396.916v1.834h10.396v-1.834q0-.521.395-.916.396-.396.917-.396.542 0 .938.396.395.395.395.916v1.834q0 1.124-.771 1.885-.77.76-1.874.76Z"/></svg>

<svg xmlns="http://www.w3.org/2000/svg" height="20" width="20"><path d="M10 12.521Q9.771 12.521 9.531 12.417Q9.292 12.312 9.083 12.104L5.562 8.583Q5.146 8.167 5.146 7.646Q5.146 7.125 5.583 6.708Q6 6.292 6.51 6.302Q7.021 6.312 7.438 6.729L8.688 8V3.042Q8.688 2.5 9.083 2.115Q9.479 1.729 10 1.729Q10.542 1.729 10.938 2.115Q11.333 2.5 11.333 3.042V8L12.604 6.729Q13.021 6.312 13.531 6.302Q14.042 6.292 14.458 6.708Q14.875 7.125 14.875 7.646Q14.875 8.167 14.458 8.583L10.958 12.104Q10.729 12.312 10.49 12.417Q10.25 12.521 10 12.521ZM4.792 17.833Q3.688 17.833 2.917 17.073Q2.146 16.312 2.146 15.188V13.354Q2.146 12.833 2.542 12.438Q2.938 12.042 3.458 12.042Q4 12.042 4.396 12.438Q4.792 12.833 4.792 13.354V15.188Q4.792 15.188 4.792 15.188Q4.792 15.188 4.792 15.188H15.188Q15.188 15.188 15.188 15.188Q15.188 15.188 15.188 15.188V13.354Q15.188 12.833 15.583 12.438Q15.979 12.042 16.5 12.042Q17.042 12.042 17.438 12.438Q17.833 12.833 17.833 13.354V15.188Q17.833 16.312 17.062 17.073Q16.292 17.833 15.188 17.833Z"/></svg>
